X: 35209
T: Rory Gallagher's
R: jig
M: 6/8
K: Amajor
cd|:eaa faa|eae fec|eaf ecA|cBB Bcd|
eaa faa|eae fec|eaf ecB|1 cAA Acd:|2 cAA A2B||
|:cAA cde|dAA ded|eAA eAe|dAA ded|
cAA cde|dAA ded|eee fed|cdB A3:|

